X:1
T:James Gibb editions
T:Now the day is over (II) - Barnby
%%score [ ( 1 2 ) ( 3 4 ) ]
L:1/8
Q:1/4=80
M:4/4
K:A
V:1 treble nm="Midi_74"
V:2 treble 
V:3 bass nm="Midi_74"
V:4 bass 
V:1
"^Sandown (65. 65)""^slowly and simply""^Now the day is over (II)""^Joseph Barnby\n(1838-96)""^Sabine Baring Gould\n(1834-1924)" E2 E2 A2 G2 | %1
 F4 E4 || F2 C2 E2 ^D2 | E8 ||[M:4/4] E2!<(! c2 B2 A2!<)! |!>(! G4!>)! F4 || E2 A2 A2 G2 | A8 || %8
 A4 A4 || %9
V:2
 C2 C2 C2 C2 | ^D4 E4 || C2 C2 B,2 B,2 | B,8 ||[M:4/4] C2 C2 D2 E2 | ^E4 F4 || C2 E2 E2 E2 | E8 || %8
w: Now the day is|o- ver,|Night is draw- ing|nigh,|Sha- dows of the|eve- ning|Steal a- cross the|sky.|
 F4 E4 || %9
w: A- men.|
V:3
 A,2"^1" A,2 C2 B,2 | A,4 G,4 || F,2 A,2 G,2 F,2 | G,8 || %4
[M:4/4]"^2 Jesus, give the weary\nCalm and sweet repose;\nWith Thy tend'rest blessing\nMay our eyelids close.\n\n3 Grant to little children\nVisions bright of Thee;\nGuard the sailors tossing\nOn the deep blue sea." A,2 E,2 G,2 A,2 | %5
 B,4 A,4 || %6
"^4 Comfort ev'ry suff'rer\nWatching late in pain;\nThose who plan some evil\nFrom their sin restrain.\n\n5 When the morning wakens,\nThen may I arise\nPure, and fresh, and sinless\nIn Thy holy eyes." A,2 B,C B,2 D2 | %7
 C8 || D4 C4 || %9
V:4
 A,2 A,2 F,2 F,2 | B,,4 C,4 || A,,2 A,,2 B,,2 B,,2 | E,8 ||[M:4/4] A,,2 A,,2 B,,2 C,2 | D,4 D,4- || %6
 E,2 E,2 E,2 E,2 | A,,8 || D,4 A,,4 || %9

